packages/devextreme-scss/images/icons/generic/checkmarkcircle.svg

<!-- Generated by IcoMoon.io -->
<svg version="1.1" xmlns="http://www.w3.org/2000/svg" width="18" height="18" viewBox="0 0 18 18">
<path d="M8 9.59l4-4.090 1.41 1.42-5.41 5.5-3-3 1.41-1.41 1.59 1.58z"></path>
<path d="M1 9c0-4.418 3.582-8 8-8s8 3.582 8 8c0 4.418-3.582 8-8 8s-8-3.582-8-8zM3 9c0 3.314 2.686 6 6 6s6-2.686 6-6c0-3.314-2.686-6-6-6s-6 2.686-6 6z"></path>
</svg>

<svg width="18" height="18" viewBox="0 0 18 18" fill="none" xmlns="http://www.w3.org/2000/svg">
<title>checkmarkcircle</title>
<path d="M8 9.59L12 5.5L13.41 6.92L8 12.42L5 9.42L6.41 8.01L8 9.59Z" fill="#333333"/>
<path fill-rule="evenodd" clip-rule="evenodd" d="M1 9C1 4.582 4.582 1 9 1C13.418 1 17 4.582 17 9C17 13.418 13.418 17 9 17C4.582 17 1 13.418 1 9ZM3 9C3 12.314 5.686 15 9 15C12.314 15 15 12.314 15 9C15 5.686 12.314 3 9 3C5.686 3 3 5.686 3 9Z" fill="#333333"/>
</svg>
